X: 208
T: Drumnagarry
C:
O:Scotland
B:Keith Norman MacDonald : "The Skye collection of the best reels & strathspeys extant" : 1887
Z:Ralph Palmer
R:Strathspey
M:C
L:1/8
K:G
D |\
G>D B,>G, (B,/C/D) G2 | E<A, F<A, G>A, E<A |\
G>G, B,>G, (B,/C/D) G2 |[1 (3FGA (3DEF (3GEC (3B,A,G, :|[2 (3FGA (3DEF G2 G, ||
c |\
B<G B<d g>d BG | (3cec (3BdB A>B c>d |\
B<G B<d g>d BG | (3FGA (3DEF G2 G, ||
c |\
B<G B<d g>d BG | (3cec (3BdB A>B c>e |\
(3dcB (3ABc (3BAG (3FGA | (3GFE (3DEF (3GDC (3B,A,G, |]\
["Last"G,4 |]

%%sep 1 1 500

